packages/core/src/svgs/vno.svg

<svg width="24" height="24" viewBox="0 0 24 24" fill="none" xmlns="http://www.w3.org/2000/svg">
<g clip-path="url(#clip0_31_20489)">
<path d="M0 0H24V24H0V0Z" fill="#F0F3FA"/>
<path fill-rule="evenodd" clip-rule="evenodd" d="M17.1471 6.70698C15.7859 5.79719 14.2083 5.26344 12.5743 5.15983C10.396 5.01498 8.23759 5.65337 6.48855 6.95983C5.84569 7.43983 5.85426 8.28412 6.40712 8.82412C7.71855 10.1013 9.11998 11.4684 10.6114 12.9341C10.8265 13.1484 11.0895 13.3083 11.3786 13.4008C11.6678 13.4932 11.9748 13.5154 12.2743 13.4655C12.7028 13.4141 13.0457 13.2513 13.3157 12.9941L17.4728 8.93126C17.6871 8.71698 17.8285 8.54126 17.8928 8.39555C18.0385 8.07412 18.0343 7.75269 17.8843 7.4184C17.7055 7.11898 17.4494 6.87322 17.1428 6.70698H17.1471ZM16.1528 7.53412C14.9431 6.79521 13.5587 6.39113 12.1414 6.36327C10.7242 6.3354 9.32496 6.68476 8.08712 7.37555C7.65426 7.61555 7.28569 7.97555 7.76998 8.42555C8.83712 9.42412 9.99855 10.487 11.25 11.6141C11.4643 11.8027 11.6057 11.9141 11.6871 11.9484C11.9957 12.077 12.2871 12.0213 12.5657 11.7684C13.6971 10.757 14.8843 9.67698 16.1357 8.5284C16.4614 8.2284 16.6243 7.84269 16.1528 7.53412ZM6.42855 11.837C6.67165 11.6187 6.99026 11.5037 7.31674 11.5165C7.64323 11.5293 7.95186 11.6689 8.17712 11.9055L11.3828 15.1198C11.7514 15.4927 12.1971 15.5484 12.5828 15.1584L15.7243 12.0084C16.2385 11.4855 16.8857 11.3613 17.5243 11.8198C17.58 11.8627 17.5843 11.9013 17.5371 11.9484C16.1903 13.293 14.8446 14.6388 13.5 15.9855C12.63 16.8513 11.4043 16.8855 10.53 16.007C9.15937 14.6333 7.78794 13.2604 6.41569 11.8884C6.41268 11.8824 6.41111 11.8758 6.41111 11.8691C6.41111 11.8624 6.41268 11.8558 6.41569 11.8498C6.41901 11.8447 6.42339 11.8403 6.42855 11.837ZM9.60855 18.2227C10.5814 19.1698 11.9614 19.6198 13.2685 18.9984C13.6843 18.8013 14.0314 18.5698 14.31 18.2955L17.4257 15.2827C17.4328 15.2759 17.4373 15.2668 17.4385 15.257C17.4396 15.2463 17.4365 15.2355 17.43 15.227C17.3438 15.1205 17.2294 15.0403 17.1 14.9955C16.53 14.7941 16.0543 14.8884 15.66 15.2698L13.5085 17.3698C12.4757 18.3684 11.3657 18.227 10.38 17.267L8.32712 15.2527C7.84712 14.7898 7.05426 14.7298 6.55712 15.2013C6.54904 15.2092 6.54442 15.22 6.54426 15.2313C6.54546 15.2411 6.55 15.2501 6.55712 15.257C7.58569 16.2513 8.6014 17.237 9.60855 18.2227Z" fill="#1D0163"/>
</g>
<defs>
<clipPath id="clip0_31_20489">
<rect width="24" height="24" fill="white"/>
</clipPath>
</defs>
</svg>

<svg xmlns="http://www.w3.org/2000/svg" width="24" height="24" fill="none" viewBox="0 0 24 24"><g clip-path="url(#a)"><path fill="#F0F3FA" d="M0 0h24v24H0z"/><path fill="#1D0163" fill-rule="evenodd" d="M17.147 6.707a9.3 9.3 0 0 0-4.573-1.547 9.15 9.15 0 0 0-6.085 1.8c-.643.48-.635 1.324-.082 1.864 1.312 1.277 2.713 2.644 4.204 4.11a1.91 1.91 0 0 0 1.663.532 1.77 1.77 0 0 0 1.042-.472l4.157-4.063q.322-.32.42-.535a1.13 1.13 0 0 0-.009-.978 1.94 1.94 0 0 0-.741-.711zm-.994.827a8 8 0 0 0-8.066-.158c-.433.24-.801.6-.317 1.05q1.602 1.497 3.48 3.188c.214.189.356.3.437.334.309.129.6.073.879-.18a370 370 0 0 0 3.57-3.24c.325-.3.488-.685.017-.994m-9.724 4.303a1.256 1.256 0 0 1 1.748.069l3.206 3.214c.368.373.814.428 1.2.038l3.141-3.15c.514-.522 1.162-.647 1.8-.188.056.043.06.081.013.128q-2.02 2.017-4.037 4.037c-.87.866-2.096.9-2.97.022q-2.056-2.061-4.114-4.119a.04.04 0 0 1 0-.038zm3.18 6.386c.972.947 2.352 1.397 3.66.775a3.8 3.8 0 0 0 1.041-.703l3.116-3.012a.04.04 0 0 0 .013-.026.04.04 0 0 0-.009-.03.73.73 0 0 0-.33-.232c-.57-.2-1.046-.107-1.44.275l-2.152 2.1c-1.032.998-2.142.857-3.128-.103l-2.053-2.014c-.48-.463-1.273-.523-1.77-.052a.04.04 0 0 0-.013.03q.002.016.013.026a689 689 0 0 1 3.052 2.966" clip-rule="evenodd"/></g><defs><clipPath id="a"><path fill="#fff" d="M0 0h24v24H0z"/></clipPath></defs></svg>
